X: 1168
T: Magowan's Jig   #2
R: slipjig
%S: s:2 b:9(4+5)
B: O'Neill's 1850 Music of Ireland #1168
Z: Stephen Foy (shf@access.digex.net)
%: abc 1.6
M: 9/8
K: C
"^A"|: c>AG GEC DEG |[1,3 c>AG GEC D2E :|[2,4 cAc GEG A2c "^B":: c>eg gea gec |
|[1 c>eg gec d2e :|[2 cBA GEC E2G :|[3 ceg gea e2g | agf gfe dcB | cAc GEG A2c |]
